flaticon/interaction/cloud-computing-13.svg

<svg xmlns="http://www.w3.org/2000/svg" width="32" height="32" viewBox="0 0 24 24">
    <path d="M 7.601562 22 L 17.199219 22 L 17.199219 12.398438 L 7.601562 12.398438 Z M 8.398438 13.199219 L 16.398438 13.199219 L 16.398438 21.199219 L 12.800781 21.199219 L 12.800781 16.164062 L 14.515625 17.882812 L 15.082031 17.316406 L 12.398438 14.632812 L 9.71875 17.316406 L 10.28125 17.882812 L 12 16.164062 L 12 21.199219 L 8.398438 21.199219 Z M 8.398438 13.199219"/>
    <path d="M 20.390625 8.476562 C 20.179688 4.878906 17.210938 2 13.632812 2 C 11.460938 2 9.359375 3.066406 8.054688 4.804688 C 8.023438 4.789062 7.992188 4.777344 7.960938 4.761719 C 7.882812 4.722656 7.804688 4.6875 7.722656 4.65625 C 7.675781 4.636719 7.628906 4.621094 7.582031 4.601562 C 7.503906 4.574219 7.421875 4.550781 7.339844 4.527344 C 7.292969 4.515625 7.246094 4.503906 7.195312 4.492188 C 7.109375 4.472656 7.019531 4.457031 6.929688 4.445312 C 6.886719 4.4375 6.84375 4.429688 6.804688 4.425781 C 6.671875 4.410156 6.535156 4.398438 6.398438 4.398438 C 4.414062 4.398438 2.800781 6.015625 2.800781 8 C 2.800781 8.050781 2.804688 8.101562 2.804688 8.152344 C 1.144531 9.058594 0 10.960938 0 12.863281 C 0 15.695312 2.304688 18 5.136719 18 C 5.359375 18 5.539062 17.820312 5.539062 17.601562 C 5.539062 17.378906 5.359375 17.199219 5.136719 17.199219 C 2.746094 17.199219 0.800781 15.253906 0.800781 12.863281 C 0.800781 11.199219 1.882812 9.476562 3.371094 8.761719 L 3.601562 8.652344 L 3.601562 8.398438 C 3.601562 8.351562 3.601562 8.300781 3.605469 8.25 L 3.609375 8.179688 L 3.605469 8.101562 C 3.601562 8.066406 3.601562 8.035156 3.601562 8 C 3.601562 6.457031 4.855469 5.199219 6.398438 5.199219 C 6.523438 5.199219 6.644531 5.210938 6.765625 5.226562 C 6.796875 5.230469 6.828125 5.234375 6.859375 5.242188 C 6.96875 5.257812 7.074219 5.28125 7.175781 5.3125 C 7.191406 5.316406 7.203125 5.320312 7.21875 5.324219 C 7.332031 5.355469 7.445312 5.402344 7.550781 5.449219 C 7.582031 5.464844 7.609375 5.476562 7.636719 5.492188 C 7.730469 5.539062 7.828125 5.589844 7.917969 5.648438 C 8.6875 6.148438 9.199219 7.015625 9.199219 8 C 9.199219 8.222656 9.378906 8.398438 9.601562 8.398438 C 9.820312 8.398438 10 8.222656 10 8 C 10 6.898438 9.5 5.914062 8.71875 5.25 C 9.867188 3.75 11.753906 2.800781 13.632812 2.800781 C 16.730469 2.800781 19.304688 5.253906 19.574219 8.355469 C 19.164062 8.328125 18.550781 8.3125 17.941406 8.40625 C 17.722656 8.4375 17.570312 8.640625 17.605469 8.859375 C 17.632812 9.058594 17.804688 9.199219 18 9.199219 C 18.019531 9.199219 18.039062 9.199219 18.058594 9.195312 C 18.949219 9.0625 19.878906 9.1875 19.933594 9.195312 C 21.796875 9.546875 23.199219 11.265625 23.199219 13.1875 C 23.199219 15.402344 21.402344 17.199219 19.1875 17.199219 C 18.96875 17.199219 18.789062 17.378906 18.789062 17.601562 C 18.789062 17.820312 18.96875 18 19.1875 18 C 21.839844 18 24 15.839844 24 13.1875 C 24 10.992188 22.46875 9.023438 20.390625 8.476562 Z M 20.390625 8.476562"/>
</svg>

<svg xmlns="http://www.w3.org/2000/svg" width="32" height="32" viewBox="0 0 24 24">
    <path d="M7.602 22h9.597v-9.602H7.602zm.796-8.8h8v8h-3.597v-5.036l1.715 1.719.566-.567-2.684-2.683-2.68 2.683.563.567L12 16.164V21.2H8.398zm0 0"/>
    <path d="M20.39 8.477C20.18 4.879 17.21 2 13.634 2 11.46 2 9.359 3.066 8.055 4.805c-.032-.016-.063-.028-.094-.043a2.596 2.596 0 0 0-.238-.106c-.047-.02-.094-.035-.141-.054a4.384 4.384 0 0 0-.242-.075l-.145-.035a2.898 2.898 0 0 0-.265-.047 3.489 3.489 0 0 0-.531-.047A3.604 3.604 0 0 0 2.8 8c0 .05.004.102.004.152C1.145 9.06 0 10.961 0 12.863A5.143 5.143 0 0 0 5.137 18a.401.401 0 1 0 0-.8A4.341 4.341 0 0 1 .8 12.862c0-1.664 1.082-3.386 2.57-4.101l.23-.11v-.254c0-.046 0-.097.004-.148l.004-.07-.004-.078c-.003-.036-.003-.067-.003-.102 0-1.543 1.253-2.8 2.796-2.8.125 0 .247.01.368.027.03.003.062.007.093.015.11.016.215.04.317.07l.043.012c.113.031.226.078.332.125l.086.043c.093.047.191.098.281.156.77.5 1.281 1.368 1.281 2.352 0 .223.18.398.403.398A.398.398 0 0 0 10 8c0-1.102-.5-2.086-1.281-2.75 1.148-1.5 3.035-2.45 4.914-2.45 3.097 0 5.672 2.454 5.941 5.555a7.7 7.7 0 0 0-1.633.051.395.395 0 0 0-.336.453c.028.2.2.34.395.34.02 0 .04 0 .059-.004.89-.133 1.82-.008 1.875 0 1.863.352 3.265 2.07 3.265 3.992a4.013 4.013 0 0 1-4.012 4.012.401.401 0 0 0 0 .801A4.82 4.82 0 0 0 24 13.187c0-2.195-1.531-4.164-3.61-4.71zm0 0"/>
</svg>
